SVG_Azure_Grouped/Office365/O365 - Teams.svg

<?xml version="1.0" encoding="UTF-8" standalone="no"?>
<!-- Generated by Microsoft Visio, SVG Export O365 - Teams.svg Page-1 -->

<svg
   xmlns:dc="http://purl.org/dc/elements/1.1/"
   xmlns:cc="http://creativecommons.org/ns#"
   xmlns:rdf="http://www.w3.org/1999/02/22-rdf-syntax-ns#"
   xmlns:svg="http://www.w3.org/2000/svg"
   xmlns="http://www.w3.org/2000/svg"
   xmlns:sodipodi="http://sodipodi.sourceforge.net/DTD/sodipodi-0.dtd"
   xmlns:inkscape="http://www.inkscape.org/namespaces/inkscape"
   width="0.78742397in"
   height="0.78740036in"
   viewBox="0 0 56.694599 56.692577"
   xml:space="preserve"
   class="st8"
   version="1.1"
   id="svg84"
   sodipodi:docname="O365 - Teams.svg"
   style="font-size:12px;overflow:visible;color-interpolation-filters:sRGB;fill:none;fill-rule:evenodd;stroke-linecap:square;stroke-miterlimit:3"
   inkscape:version="0.92.5 (2060ec1f9f, 2020-04-08)"><metadata
   id="metadata90"><rdf:RDF><cc:Work
       rdf:about=""><dc:format>image/svg+xml</dc:format><dc:type
         rdf:resource="http://purl.org/dc/dcmitype/StillImage" /></cc:Work></rdf:RDF></metadata><defs
   id="defs88" /><sodipodi:namedview
   pagecolor="#ffffff"
   bordercolor="#666666"
   borderopacity="1"
   objecttolerance="10"
   gridtolerance="10"
   guidetolerance="10"
   inkscape:pageopacity="0"
   inkscape:pageshadow="2"
   inkscape:window-width="640"
   inkscape:window-height="480"
   id="namedview86"
   showgrid="false"
   inkscape:zoom="1.6228336"
   inkscape:cx="37.795284"
   inkscape:cy="27.358099"
   inkscape:window-x="0"
   inkscape:window-y="0"
   inkscape:window-maximized="0"
   inkscape:current-layer="svg84" />
	<style
   type="text/css"
   id="style2">
	<![CDATA[
		.st1 {fill:#7b83eb;stroke:none;stroke-linecap:butt;stroke-width:18.3596}
		.st2 {fill:#000000;fill-opacity:0.098;stroke:none;stroke-linecap:butt;stroke-width:18.3596}
		.st3 {fill:#000000;fill-opacity:0.2;stroke:none;stroke-linecap:butt;stroke-width:18.3596}
		.st4 {fill:#5059c9;stroke:none;stroke-linecap:butt;stroke-width:18.3596}
		.st5 {fill:#4b53bc;stroke:none;stroke-linecap:butt;stroke-width:18.3596}
		.st6 {fill:#ffffff;stroke:none;stroke-linecap:butt;stroke-width:18.3596}
		.st7 {fill:none;stroke:none;stroke-linecap:butt;stroke-width:18.3596}
		.st8 {fill:none;fill-rule:evenodd;font-size:12px;overflow:visible;stroke-linecap:square;stroke-miterlimit:3}
	]]>
	</style>

	<g
   id="g82"
   transform="translate(-18.3596,-18.36001)">
		<title
   id="title4">Page-1</title>
		<g
   id="group20734-1"
   transform="translate(18.3596,-34.0157)">
			<title
   id="title6">O365 - Teams.20734</title>
			<g
   id="group20735-2">
				<title
   id="title8">g30</title>
				<g
   id="shape20736-3"
   transform="translate(21.8498,-37.7947)">
					<title
   id="title10">circle2</title>
					<circle
   cx="8.2683096"
   cy="100.8"
   class="st1"
   id="ellipse12"
   r="8.2683096"
   style="fill:#7b83eb;stroke:none;stroke-width:18.35960007;stroke-linecap:butt" />
				</g>
				<g
   id="shape20737-5"
   transform="translate(22.0394,-37.986)">
					<title
   id="title15">path4</title>
					<path
   d="M 7.49,102.76 H 0 l 0.04,0.17 v 0.01 l 0.04,0.15 a 8.27539,8.27539 -180 0 0 9.77,5.98 v -3.95 a 2.3687,2.3687 -180 0 0 -2.36,-2.36 z"
   class="st2"
   id="path17"
   inkscape:connector-curvature="0"
   style="fill:#000000;fill-opacity:0.09800002;stroke:none;stroke-width:18.35960007;stroke-linecap:butt" />
				</g>
				<g
   id="shape20738-7"
   transform="translate(22.647,-37.7947)">
					<title
   id="title20">path6</title>
					<path
   d="M 5.11,104.34 H 0 a 8.26831,8.26831 -180 0 0 7.47,4.73 v -2.37 a 2.3687,2.3687 -180 0 0 -2.36,-2.36 z"
   class="st3"
   id="path22"
   inkscape:connector-curvature="0"
   style="fill:#000000;fill-opacity:0.2;stroke:none;stroke-width:18.35960007;stroke-linecap:butt" />
				</g>
				<g
   id="shape20739-9"
   transform="translate(42.5197,-37.2047)">
					<title
   id="title25">circle8</title>
					<circle
   cx="6.2007899"
   cy="102.868"
   class="st4"
   id="ellipse27"
   r="6.2007899"
   style="fill:#5059c9;stroke:none;stroke-width:18.35960007;stroke-linecap:butt" />
				</g>
				<g
   id="shape20740-11"
   transform="translate(38.9746,-10.924)">
					<title
   id="title30">path10</title>
					<path
   d="M 15.06,84.56 H 1.13 A 1.13386,1.13386 -180 0 0 0,85.69 v 14.37 a 9.07264,9.07264 -180 0 0 7.03,9.01 8.8689,8.8689 -180 0 0 10.69,-8.68 V 87.22 a 2.65748,2.65748 -180 0 0 -2.66,-2.66 z"
   class="st4"
   id="path32"
   inkscape:connector-curvature="0"
   style="fill:#5059c9;stroke:none;stroke-width:18.35960007;stroke-linecap:butt" />
				</g>
				<g
   id="shape20741-13"
   transform="translate(15.9449,-2.25576)">
					<title
   id="title35">path12</title>
					<path
   d="M 28.35,78.55 V 95.38 A 14.1644,14.1644 0 0 1 1.91,102.47 12.7081,12.7081 0 0 1 1.03,100.69 14.8234,14.8234 0 0 1 0.44,98.92 14.5984,14.5984 0 0 1 0,95.38 V 78.55 a 2.65394,2.65394 0 0 1 2.66,-2.66 h 23.03 a 2.65394,2.65394 0 0 1 2.66,2.66 z"
   class="st1"
   id="path37"
   inkscape:connector-curvature="0"
   style="fill:#7b83eb;stroke:none;stroke-width:18.35960007;stroke-linecap:butt" />
				</g>
				<g
   id="shape20742-15"
   transform="translate(22.647,-37.7947)">
					<title
   id="title40">path14</title>
					<path
   d="M 5.11,104.34 H 0 a 8.26831,8.26831 -180 0 0 7.47,4.73 v -2.37 a 2.3687,2.3687 -180 0 0 -2.36,-2.36 z"
   class="st3"
   id="path42"
   inkscape:connector-curvature="0"
   style="fill:#000000;fill-opacity:0.2;stroke:none;stroke-width:18.35960007;stroke-linecap:butt" />
				</g>
				<g
   id="shape20743-17"
   transform="translate(15.9449,-10.6299)">
					<title
   id="title45">path16</title>
					<path
   d="m 15.94,84.27 v 22.44 A 2.33858,2.33858 0 0 1 14.1,109 1.71142,1.71142 0 0 1 13.59,109.07 H 1.03 A 14.8234,14.8234 0 0 1 0.44,107.3 14.5984,14.5984 0 0 1 0,103.75 V 86.92 a 2.65394,2.65394 0 0 1 2.66,-2.65 z"
   class="st2"
   id="path47"
   inkscape:connector-curvature="0"
   style="fill:#000000;fill-opacity:0.09800002;stroke:none;stroke-width:18.35960007;stroke-linecap:butt" />
				</g>
				<g
   id="shape20744-19"
   transform="translate(15.9449,-8.85827)">
					<title
   id="title50">path18</title>
					<path
   d="m 14.17,82.49 v 24.22 a 1.71319,1.71319 0 0 1 -0.07,0.52 2.33858,2.33858 0 0 1 -2.28,1.84 H 1.91 A 12.7081,12.7081 0 0 1 1.03,107.3 14.8234,14.8234 0 0 1 0.44,105.52 14.5984,14.5984 0 0 1 0,101.98 V 85.15 a 2.65394,2.65394 0 0 1 2.66,-2.66 z"
   class="st3"
   id="path52"
   inkscape:connector-curvature="0"
   style="fill:#000000;fill-opacity:0.2;stroke:none;stroke-width:18.35960007;stroke-linecap:butt" />
				</g>
				<g
   id="shape20745-21"
   transform="translate(15.9449,-12.4016)">
					<title
   id="title55">path20</title>
					<path
   d="m 14.17,86.04 v 20.67 a 2.36693,2.36693 0 0 1 -2.35,2.36 H 0.44 A 14.5984,14.5984 0 0 1 0,105.52 V 88.69 a 2.65394,2.65394 0 0 1 2.66,-2.65 z"
   class="st3"
   id="path57"
   inkscape:connector-curvature="0"
   style="fill:#000000;fill-opacity:0.2;stroke:none;stroke-width:18.35960007;stroke-linecap:butt" />
				</g>
				<g
   id="shape20746-23"
   transform="translate(15.9449,-12.4016)">
					<title
   id="title60">path22</title>
					<path
   d="M 2.66,86.04 A 2.65394,2.65394 -180 0 0 0,88.69 v 16.83 a 14.5984,14.5984 -180 0 0 0.44,3.55 h 9.61 a 2.36693,2.36693 -180 0 0 2.35,-2.36 V 86.04 Z"
   class="st3"
   id="path62"
   inkscape:connector-curvature="0"
   style="fill:#000000;fill-opacity:0.2;stroke:none;stroke-width:18.35960007;stroke-linecap:butt" />
				</g>
				<g
   id="shape20747-25"
   transform="translate(0,-14.1732)">
					<title
   id="title65">path24</title>
					<path
   d="m 2.36,80.72 h 23.62 a 2.36161,2.36161 0 0 1 2.37,2.36 v 23.63 a 2.36161,2.36161 0 0 1 -2.37,2.36 H 2.36 A 2.36161,2.36161 0 0 1 0,106.71 V 83.08 a 2.36161,2.36161 0 0 1 2.36,-2.36 z"
   class="st5"
   id="path67"
   inkscape:connector-curvature="0"
   style="fill:#4b53bc;stroke:none;stroke-width:18.35960007;stroke-linecap:butt" />
				</g>
				<g
   id="shape20748-27"
   transform="translate(7.12205,-19.497)">
					<title
   id="title70">path26</title>
					<path
   d="M 14.1,94.86 H 8.81 v 14.21 H 5.33 V 94.86 H 0 v -3.49 h 14.1 z"
   class="st6"
   id="path72"
   inkscape:connector-curvature="0"
   style="fill:#ffffff;stroke:none;stroke-width:18.35960007;stroke-linecap:butt" />
				</g>
				<g
   id="shape20749-29">
					<title
   id="title75">path28</title>
					<rect
   x="0"
   y="52.375401"
   width="56.692902"
   height="56.692902"
   class="st7"
   id="rect77"
   style="fill:none;stroke:none;stroke-width:18.35960007;stroke-linecap:butt" />
				</g>
			</g>
		</g>
	</g>
</svg>

<?xml version="1.0" encoding="UTF-8" standalone="no"?>
<!DOCTYPE svg PUBLIC "-//W3C//DTD SVG 1.1//EN" "http://www.w3.org/Graphics/SVG/1.1/DTD/svg11.dtd">
<!-- Generated by Microsoft Visio, SVG Export O365 - Teams.svg Page-1 -->
<svg xmlns="http://www.w3.org/2000/svg" xmlns:xlink="http://www.w3.org/1999/xlink" xmlns:ev="http://www.w3.org/2001/xml-events"
		width="1.29739in" height="1.51484in" viewBox="0 0 93.4122 109.068" xml:space="preserve" color-interpolation-filters="sRGB"
		class="st8">
	<style type="text/css">
	<![CDATA[
		.st1 {fill:#7b83eb;stroke:none;stroke-linecap:butt;stroke-width:18.3596}
		.st2 {fill:#000000;fill-opacity:0.098;stroke:none;stroke-linecap:butt;stroke-width:18.3596}
		.st3 {fill:#000000;fill-opacity:0.2;stroke:none;stroke-linecap:butt;stroke-width:18.3596}
		.st4 {fill:#5059c9;stroke:none;stroke-linecap:butt;stroke-width:18.3596}
		.st5 {fill:#4b53bc;stroke:none;stroke-linecap:butt;stroke-width:18.3596}
		.st6 {fill:#ffffff;stroke:none;stroke-linecap:butt;stroke-width:18.3596}
		.st7 {fill:none;stroke:none;stroke-linecap:butt;stroke-width:18.3596}
		.st8 {fill:none;fill-rule:evenodd;font-size:12px;overflow:visible;stroke-linecap:square;stroke-miterlimit:3}
	]]>
	</style>

	<g>
		<title>Page-1</title>
		<g id="group20268-1" transform="translate(18.3596,-34.0157)">
			<title>O365 - Teams.20268</title>
			<g id="group20269-2">
				<title>g30</title>
				<g id="shape20270-3" transform="translate(21.8498,-37.7947)">
					<title>circle2</title>
					<ellipse cx="8.26831" cy="100.8" rx="8.26831" ry="8.26831" class="st1"/>
				</g>
				<g id="shape20271-5" transform="translate(22.0394,-37.986)">
					<title>path4</title>
					<path d="M7.49 102.76 L0 102.76 L0.04 102.93 L0.04 102.94 L0.08 103.09 A8.27539 8.27539 -180 0 0 9.85 109.07
								 L9.85 105.12 A2.3687 2.3687 -180 0 0 7.49 102.76 Z" class="st2"/>
				</g>
				<g id="shape20272-7" transform="translate(22.647,-37.7947)">
					<title>path6</title>
					<path d="M5.11 104.34 L0 104.34 A8.26831 8.26831 -180 0 0 7.47 109.07 L7.47 106.7 A2.3687 2.3687 -180 0 0 5.11
								 104.34 Z" class="st3"/>
				</g>
				<g id="shape20273-9" transform="translate(42.5197,-37.2047)">
					<title>circle8</title>
					<ellipse cx="6.20079" cy="102.868" rx="6.20079" ry="6.20079" class="st4"/>
				</g>
				<g id="shape20274-11" transform="translate(38.9746,-10.924)">
					<title>path10</title>
					<path d="M15.06 84.56 L1.13 84.56 A1.13386 1.13386 -180 0 0 -0 85.69 L0 100.06 A9.07264 9.07264 -180 0 0 7.03
								 109.07 A8.8689 8.8689 -180 0 0 17.72 100.39 L17.72 87.22 A2.65748 2.65748 -180 0 0 15.06 84.56 Z"
							class="st4"/>
				</g>
				<g id="shape20275-13" transform="translate(15.9449,-2.25576)">
					<title>path12</title>
					<path d="M28.35 78.55 L28.35 95.38 A14.1644 14.1644 0 0 1 1.91 102.47 A12.7081 12.7081 0 0 1 1.03 100.69 A14.8234
								 14.8234 0 0 1 0.44 98.92 A14.5984 14.5984 0 0 1 0 95.38 L0 78.55 A2.65394 2.65394 0 0 1 2.66 75.89
								 L25.69 75.89 A2.65394 2.65394 0 0 1 28.35 78.55 Z" class="st1"/>
				</g>
				<g id="shape20276-15" transform="translate(22.647,-37.7947)">
					<title>path14</title>
					<path d="M5.11 104.34 L0 104.34 A8.26831 8.26831 -180 0 0 7.47 109.07 L7.47 106.7 A2.3687 2.3687 -180 0 0 5.11
								 104.34 Z" class="st3"/>
				</g>
				<g id="shape20277-17" transform="translate(15.9449,-10.6299)">
					<title>path16</title>
					<path d="M15.94 84.27 L15.94 106.71 A2.33858 2.33858 0 0 1 14.1 109 A1.71142 1.71142 0 0 1 13.59 109.07 L1.03
								 109.07 A14.8234 14.8234 0 0 1 0.44 107.3 A14.5984 14.5984 0 0 1 0 103.75 L0 86.92 A2.65394 2.65394
								 0 0 1 2.66 84.27 L15.94 84.27 Z" class="st2"/>
				</g>
				<g id="shape20278-19" transform="translate(15.9449,-8.85827)">
					<title>path18</title>
					<path d="M14.17 82.49 L14.17 106.71 A1.71319 1.71319 0 0 1 14.1 107.23 A2.33858 2.33858 0 0 1 11.82 109.07 L1.91
								 109.07 A12.7081 12.7081 0 0 1 1.03 107.3 A14.8234 14.8234 0 0 1 0.44 105.52 A14.5984 14.5984 0 0
								 1 0 101.98 L0 85.15 A2.65394 2.65394 0 0 1 2.66 82.49 L14.17 82.49 Z" class="st3"/>
				</g>
				<g id="shape20279-21" transform="translate(15.9449,-12.4016)">
					<title>path20</title>
					<path d="M14.17 86.04 L14.17 106.71 A2.36693 2.36693 0 0 1 11.82 109.07 L0.44 109.07 A14.5984 14.5984 0 0 1 -0
								 105.52 L0 88.69 A2.65394 2.65394 0 0 1 2.66 86.04 L14.17 86.04 Z" class="st3"/>
				</g>
				<g id="shape20280-23" transform="translate(15.9449,-12.4016)">
					<title>path22</title>
					<path d="M2.66 86.04 A2.65394 2.65394 -180 0 0 -0 88.69 L0 105.52 A14.5984 14.5984 -180 0 0 0.44 109.07 L10.05
								 109.07 A2.36693 2.36693 -180 0 0 12.4 106.71 L12.4 86.04 L2.66 86.04 Z" class="st3"/>
				</g>
				<g id="shape20281-25" transform="translate(0,-14.1732)">
					<title>path24</title>
					<path d="M2.36 80.72 L25.98 80.72 A2.36161 2.36161 0 0 1 28.35 83.08 L28.35 106.71 A2.36161 2.36161 0 0 1 25.98
								 109.07 L2.36 109.07 A2.36161 2.36161 0 0 1 0 106.71 L0 83.08 A2.36161 2.36161 0 0 1 2.36 80.72 Z"
							class="st5"/>
				</g>
				<g id="shape20282-27" transform="translate(7.12205,-19.497)">
					<title>path26</title>
					<path d="M14.1 94.86 L8.81 94.86 L8.81 109.07 L5.33 109.07 L5.33 94.86 L0 94.86 L0 91.37 L14.1 91.37 L14.1 94.86
								 Z" class="st6"/>
				</g>
				<g id="shape20283-29">
					<title>path28</title>
					<rect x="0" y="52.3754" width="56.6929" height="56.6929" class="st7"/>
				</g>
			</g>
		</g>
	</g>
</svg>
